;FLAVOR:UltiGCode
;TIME:2841      
;MATERIAL:5923      
;MATERIAL2:0         

;Layer count: 50
;LAYER:0
M107
G0 F9000 X68.50 Y69.44 Z0.30
G0 X68.50 Y69.44
;TYPE:SKIRT
G11
G1 F1200 X69.76 Y68.82 E0.16814
G1 X70.33 Y68.67 E0.23980
G1 X71.59 Y68.50 E0.39237
G1 X72.79 Y68.73 E0.53883
G1 X73.58 Y69.02 E0.63935
G1 X73.64 Y69.04 E0.64751
G1 X76.14 Y69.95 E0.96666
G1 X77.34 Y68.44 E1.19818
G1 X77.62 Y68.17 E1.24519
G1 X79.06 Y66.97 E1.46929
G1 X79.40 Y66.70 E1.52125
G1 X79.65 Y66.58 E1.55559
G1 X80.25 Y66.23 E1.63783
G1 X81.44 Y65.75 E1.79181
G1 X81.80 Y65.59 E1.83925
G1 X82.17 Y65.52 E1.88454
G1 X83.49 Y65.23 E2.04651
G1 X83.90 Y65.21 E2.09612
G1 X84.04 Y65.21 E2.11352
G1 X86.29 Y65.27 E2.38361
G1 X86.68 Y65.34 E2.43118
G1 X87.86 Y65.62 E2.57645
G1 X89.17 Y66.16 E2.74630
G1 X89.40 Y66.26 E2.77646
G1 X89.67 Y66.41 E2.81296
G1 X90.88 Y67.18 E2.98491
G1 X91.06 Y67.33 E3.01393
G1 X91.65 Y67.83 E3.10655
G1 X91.83 Y68.02 E3.13745
G1 X92.86 Y69.14 E3.32089
G1 X93.08 Y69.52 E3.37367
G1 X94.06 Y71.18 E3.60461
G1 X94.36 Y72.01 E3.71017
G1 X94.47 Y72.31 E3.74900
G1 X94.52 Y72.54 E3.77758
G1 X94.80 Y73.76 E3.92747
G1 X94.83 Y74.10 E3.96790
G1 X94.91 Y75.50 E4.13697
G1 X94.88 Y75.83 E4.17665
G1 X94.71 Y77.22 E4.34410
G1 X94.65 Y77.48 E4.37671
G1 X94.57 Y77.80 E4.41609
G1 X94.46 Y78.25 E4.47115
G1 X94.05 Y79.30 E4.60609
G1 X93.94 Y79.56 E4.64091
G1 X93.86 Y79.69 E4.65903
G1 X93.37 Y80.62 E4.78479
G1 X92.52 Y81.77 E4.95649
G1 X92.27 Y82.08 E5.00512
G1 X91.10 Y83.09 E5.18974
G1 X91.08 Y83.11 E5.19272
G1 X90.42 Y83.67 E5.29687
G1 X90.21 Y83.79 E5.32565
G1 X89.86 Y84.09 E5.38143
G1 X89.60 Y84.29 E5.42077
G1 X89.03 Y84.63 E5.50064
G1 X89.03 Y84.63 E5.50100
G1 X88.99 Y85.17 E5.56597
G1 X88.78 Y85.79 E5.64365
G1 X88.08 Y87.36 E5.85053
G1 X86.81 Y88.56 E6.05961
G1 X86.36 Y88.83 E6.12279
G1 X85.33 Y89.36 E6.26271
G1 X85.06 Y89.42 E6.29477
G1 X84.98 Y89.48 E6.30745
G1 X84.14 Y89.64 E6.40968
G1 X83.39 Y89.79 E6.50198
G1 X83.36 Y89.80 E6.50554
G1 X83.10 Y89.86 E6.53660
G1 X83.00 Y89.86 E6.54864
G1 X82.47 Y89.97 E6.61360
G1 X82.15 Y89.92 E6.65260
G1 X81.97 Y89.92 E6.67492
G1 X80.99 Y89.80 E6.79285
G1 X80.35 Y89.58 E6.87421
G1 X80.33 Y89.58 E6.87638
G1 X79.97 Y89.50 E6.92128
G1 X79.36 Y89.18 E7.00346
G1 X78.99 Y88.94 E7.05562
G1 X78.92 Y88.92 E7.06542
G1 X78.56 Y88.69 E7.11644
G1 X77.63 Y88.06 E7.25098
G1 X77.02 Y87.31 E7.36674
G1 X76.52 Y86.68 E7.46352
G1 X76.36 Y86.23 E7.52093
G1 X76.16 Y85.92 E7.56513
G1 X71.75 Y85.69 E8.09518
G1 X71.32 Y85.81 E8.14813
G1 X70.37 Y85.62 E8.26488
G1 X68.64 Y85.15 E8.47915
G1 X68.03 Y84.55 E8.58235
G1 X67.97 Y84.51 E8.59090
G1 X67.57 Y84.10 E8.66023
G1 X66.65 Y83.17 E8.81662
G1 X66.44 Y82.22 E8.93371
G1 X66.03 Y80.67 E9.12612
G1 X66.25 Y79.80 E9.23423
G1 X66.30 Y79.16 E9.31100
G1 X66.51 Y78.81 E9.35931
G1 X66.65 Y78.33 E9.41988
G1 X66.67 Y78.30 E9.42399
G1 X66.74 Y78.06 E9.45483
G1 X67.38 Y77.41 E9.56454
G1 X67.49 Y77.27 E9.58521
G1 X67.92 Y76.74 E9.66750
G1 X67.38 Y76.08 E9.76922
G1 X67.06 Y75.55 E9.84409
G1 X66.41 Y73.77 E10.07179
G1 X66.99 Y71.50 E10.35268
G1 X67.36 Y70.62 E10.46732
G1 X68.50 Y69.44 E10.66395
G0 F9000 X68.74 Y69.77
G1 F1200 X69.90 Y69.20 E10.81899
G1 X70.41 Y69.06 E10.88294
G1 X71.58 Y68.90 E11.02450
G1 X72.68 Y69.12 E11.15923
G1 X73.44 Y69.39 E11.25615
G1 X73.51 Y69.42 E11.26431
G1 X76.28 Y70.43 E11.61792
G1 X77.64 Y68.71 E11.88121
G1 X77.89 Y68.46 E11.92338
G1 X79.31 Y67.28 E12.14451
G1 X79.61 Y67.04 E12.19091
G1 X79.84 Y66.93 E12.22134
G1 X80.42 Y66.60 E12.30207
G1 X81.58 Y66.12 E12.45287
G1 X81.92 Y65.98 E12.49618
G1 X82.23 Y65.92 E12.53513
G1 X83.54 Y65.63 E12.69536
G1 X83.91 Y65.61 E12.73969
G1 X84.04 Y65.61 E12.75541
G1 X86.25 Y65.67 E13.02117
G1 X86.60 Y65.73 E13.06375
G1 X87.74 Y66.00 E13.20384
G1 X89.01 Y66.53 E13.36955
G1 X89.22 Y66.62 E13.39681
G1 X89.46 Y66.75 E13.42933
G1 X90.64 Y67.50 E13.59686
G1 X90.82 Y67.65 E13.62547
G1 X91.38 Y68.12 E13.71271
G1 X91.54 Y68.29 E13.74047
G1 X92.54 Y69.38 E13.91821
G1 X92.72 Y69.69 E13.96158
G1 X93.69 Y71.36 E14.19290
G1 X93.99 Y72.14 E14.29402
G1 X94.09 Y72.42 E14.32875
G1 X94.13 Y72.63 E14.35511
G1 X94.40 Y73.83 E14.50233
G1 X94.43 Y74.13 E14.53853
G1 X94.50 Y75.50 E14.70364
G1 X94.49 Y75.80 E14.73910
G1 X94.32 Y77.15 E14.90269
G1 X94.27 Y77.39 E14.93198
G1 X94.17 Y77.75 E14.97643
G1 X94.08 Y78.13 E15.02331
G1 X93.68 Y79.14 E15.15426
G1 X93.58 Y79.38 E15.18543
G1 X93.52 Y79.49 E15.20048
G1 X93.03 Y80.41 E15.32452
G1 X92.20 Y81.52 E15.49185
G1 X91.97 Y81.81 E15.53535
G1 X90.84 Y82.79 E15.71511
G1 X90.80 Y82.82 E15.72124
G1 X90.20 Y83.34 E15.81715
G1 X89.99 Y83.45 E15.84566
G1 X89.61 Y83.78 E15.90569
G1 X89.37 Y83.96 E15.94100
G1 X88.64 Y84.39 E16.04320
G1 X88.63 Y84.61 E16.06868
G1 X88.59 Y85.09 E16.12728
G1 X88.41 Y85.64 E16.19649
G1 X87.75 Y87.12 E16.39151
G1 X86.57 Y88.24 E16.58607
G1 X86.17 Y88.48 E16.64256
G1 X85.19 Y88.99 E16.77433
G1 X84.91 Y89.05 E16.80909
G1 X84.82 Y89.10 E16.82091
G1 X84.06 Y89.25 E16.91399
G1 X83.34 Y89.39 E17.00224
G1 X83.23 Y89.41 E17.01549
G1 X83.04 Y89.46 E17.03916
G1 X82.95 Y89.47 E17.05024
G1 X82.47 Y89.56 E17.10945
G1 X82.18 Y89.52 E17.14372
G1 X81.99 Y89.52 E17.16688
G1 X81.08 Y89.41 E17.27683
G1 X80.48 Y89.20 E17.35288
G1 X80.44 Y89.19 E17.35759
G1 X80.10 Y89.12 E17.39943
G1 X79.56 Y88.83 E17.47281
G1 X79.18 Y88.59 E17.52729
G1 X79.10 Y88.56 E17.53797
G1 X78.77 Y88.36 E17.58349
G1 X77.90 Y87.76 E17.71000
G1 X77.33 Y87.06 E17.81861
G1 X76.87 Y86.49 E17.90677
G1 X76.73 Y86.06 E17.96153
G1 X76.72 Y86.05 E17.96223
G1 X76.51 Y85.72 E18.00955
G1 X76.47 Y85.54 E18.03206
G1 X71.70 Y85.29 E18.60416
G1 X71.31 Y85.40 E18.65312
G1 X70.46 Y85.23 E18.75714
G1 X68.85 Y84.79 E18.95735
G1 X68.28 Y84.24 E19.05240
G1 X68.23 Y84.20 E19.05999
G1 X67.86 Y83.82 E19.12440
G1 X67.01 Y82.97 E19.26746
G1 X66.83 Y82.11 E19.37387
G1 X66.44 Y80.67 E19.55263
G1 X66.65 Y79.86 E19.65241
G1 X66.69 Y79.28 E19.72221
G1 X66.88 Y78.98 E19.76524
G1 X67.01 Y78.52 E19.82244
G1 X67.03 Y78.49 E19.82662
G1 X67.09 Y78.27 E19.85481
G1 X67.68 Y77.67 E19.95510
G1 X67.80 Y77.52 E19.97808
G1 X68.26 Y76.95 E20.06534
G1 X68.51 Y76.83 E20.09942
G1 X67.71 Y75.85 E20.25100
G1 X67.42 Y75.37 E20.31791
G1 X66.83 Y73.74 E20.52606
G1 X67.37 Y71.63 E20.78862
G1 X67.70 Y70.84 E20.89066
G1 X68.74 Y69.77 E21.06989
G10
G0 F9000 X71.01 Y72.89
;TYPE:WALL-INNER
G11
G1 F1200 X71.21 Y72.79 E21.09694
G1 X71.47 Y72.75 E21.12866
G1 X71.67 Y72.79 E21.15250
G1 X72.14 Y72.97 E21.21381
G1 X72.22 Y72.99 E21.22322
G1 X75.49 Y74.18 E21.64084
G1 X76.03 Y74.31 E21.70777
G1 X76.11 Y74.32 E21.71669
G1 X76.86 Y74.34 E21.80732
G1 X76.97 Y74.31 E21.82042
G1 X77.89 Y74.03 E21.93616
G1 X77.98 Y73.98 E21.94841
G1 X78.50 Y73.64 E22.02410
G1 X78.86 Y73.28 E22.08460
G1 X78.92 Y73.21 E22.09509
G1 X80.47 Y71.25 E22.39510
G1 X81.67 Y70.26 E22.58205
G1 X82.09 Y70.02 E22.64063
G1 X83.05 Y69.63 E22.76378
G1 X84.02 Y69.41 E22.88408
G1 X85.85 Y69.46 E23.10363
G1 X86.56 Y69.63 E23.19142
G1 X87.52 Y70.02 E23.31555
G1 X88.39 Y70.57 E23.43859
G1 X88.77 Y70.89 E23.49788
G1 X89.46 Y71.64 E23.62026
G1 X90.25 Y72.99 E23.80843
G1 X90.41 Y73.43 E23.86406
G1 X90.64 Y74.45 E23.98962
G1 X90.70 Y75.47 E24.11218
G1 X90.57 Y76.49 E24.23561
G1 X90.50 Y76.77 E24.27063
G1 X90.45 Y76.97 E24.29586
G1 X90.17 Y77.69 E24.38772
G1 X89.81 Y78.37 E24.47999
G1 X89.21 Y79.17 E24.60086
G1 X88.37 Y79.90 E24.73324
G1 X88.35 Y79.92 E24.73758
G1 X88.03 Y80.19 E24.78770
G1 X87.83 Y80.30 E24.81444
G1 X87.22 Y80.81 E24.91048
G1 X85.95 Y81.58 E25.08852
G1 X85.83 Y81.65 E25.10583
G1 X85.77 Y81.72 E25.11630
G1 X85.48 Y82.00 E25.16475
G1 X85.12 Y82.54 E25.24280
G1 X84.95 Y83.03 E25.30485
G1 X84.63 Y81.80 E25.45735
G1 X83.66 Y80.83 E25.62162
G1 X83.49 Y80.79 E25.64290
G1 X82.35 Y80.49 E25.78413
G1 X81.21 Y80.79 E25.92586
G1 X81.03 Y80.84 E25.94770
G1 X80.10 Y81.77 E26.10561
G1 X80.04 Y81.94 E26.12779
G1 X79.73 Y83.11 E26.27245
G1 X79.75 Y83.19 E26.28188
G1 X79.23 Y82.51 E26.38442
G1 X79.13 Y82.38 E26.40351
G1 X79.04 Y82.34 E26.41506
G1 X78.76 Y82.14 E26.45651
G1 X78.34 Y81.94 E26.51234
G1 X77.64 Y81.80 E26.59782
G1 X77.47 Y81.79 E26.61885
G1 X71.30 Y81.46 E27.35990
G1 X71.20 Y81.49 E27.37244
G1 X70.79 Y81.38 E27.42338
G1 X70.71 Y81.30 E27.43747
G1 X70.69 Y81.29 E27.43920
G1 X70.58 Y81.17 E27.45855
G1 X70.48 Y81.08 E27.47518
G1 X70.37 Y80.66 E27.52700
G1 X70.41 Y80.50 E27.54673
G1 X70.42 Y80.40 E27.55889
G1 X70.43 Y80.36 E27.56337
G1 X70.45 Y80.30 E27.57138
G1 X70.47 Y80.27 E27.57599
G1 X70.48 Y80.25 E27.57850
G1 X70.53 Y80.20 E27.58673
G1 X70.70 Y79.98 E27.62046
G1 X70.79 Y79.93 E27.63254
G1 X70.87 Y79.90 E27.64220
G1 X71.10 Y79.86 E27.67057
G1 X71.20 Y79.83 E27.68349
G1 X71.30 Y79.86 E27.69598
G1 X84.83 Y79.86 E29.31874
G1 X85.54 Y79.80 E29.40484
G1 X85.61 Y79.79 E29.41356
G1 X85.66 Y79.77 E29.41941
G1 X86.26 Y79.61 E29.49405
G1 X86.33 Y79.58 E29.50252
G1 X87.33 Y79.09 E29.63632
G1 X87.41 Y79.03 E29.64840
G1 X88.15 Y78.41 E29.76504
G1 X88.20 Y78.35 E29.77417
G1 X88.65 Y77.78 E29.86167
G1 X88.99 Y77.14 E29.94870
G1 X89.03 Y77.08 E29.95660
G1 X89.05 Y77.01 E29.96506
G1 X89.29 Y76.22 E30.06412
G1 X89.40 Y75.17 E30.19124
G1 X89.39 Y75.09 E30.20038
G1 X89.31 Y74.38 E30.28696
G1 X89.30 Y74.31 E30.29543
G1 X89.05 Y73.50 E30.39635
G1 X89.01 Y73.43 E30.40603
G1 X88.54 Y72.58 E30.52332
G1 X88.49 Y72.52 E30.53254
G1 X88.01 Y71.96 E30.62136
G1 X87.94 Y71.91 E30.63075
G1 X87.09 Y71.27 E30.75869
G1 X87.01 Y71.23 E30.76976
G1 X86.00 Y70.82 E30.89978
G1 X85.91 Y70.80 E30.91154
G1 X84.85 Y70.66 E31.03987
G1 X84.77 Y70.66 E31.04985
G1 X84.01 Y70.73 E31.14072
G1 X83.94 Y70.74 E31.14907
G1 X83.24 Y70.93 E31.23669
G1 X83.17 Y70.96 E31.24545
G1 X82.42 Y71.33 E31.34645
G1 X82.35 Y71.39 E31.35644
G1 X81.51 Y72.05 E31.48514
G1 X79.81 Y74.15 E31.80891
G1 X79.04 Y74.85 E31.93369
G1 X78.41 Y75.22 E32.02136
G1 X77.91 Y75.43 E32.08648
G1 X77.18 Y75.61 E32.17705
G1 X76.83 Y75.64 E32.21967
G1 X76.46 Y75.66 E32.26373
G1 X75.72 Y75.58 E32.35296
G1 X74.99 Y75.39 E32.44331
G1 X72.61 Y74.52 E32.74743
G1 X72.54 Y74.49 E32.75684
G1 X71.23 Y74.02 E32.92315
G1 X71.02 Y73.89 E32.95288
G1 X70.85 Y73.69 E32.98451
G1 X70.80 Y73.55 E33.00293
G1 X70.96 Y72.94 E33.07825
G1 X71.01 Y72.89 E33.08674
G0 F9000 X79.05 Y74.85
G0 X82.42 Y71.33
G0 X84.85 Y70.66
G0 X87.09 Y71.27
G0 X88.54 Y72.58
G0 X89.40 Y75.17
G0 X88.65 Y77.77
G0 X87.33 Y79.09
G0 X84.83 Y79.86
G0 X77.64 Y81.80
G0 X79.23 Y82.51
G0 X79.95 Y83.68
G0 X80.22 Y84.57
G1 F1200 X80.78 Y85.13 E33.18109
G1 X80.50 Y84.94 E33.22150
G1 X80.29 Y84.67 E33.26262
G1 X80.25 Y84.62 E33.27004
G1 X80.22 Y84.57 E33.27686
G0 F9000 X81.35 Y85.46
G1 F1200 X82.27 Y85.71 E33.39120
G1 X82.20 Y85.72 E33.39902
G1 X81.93 Y85.69 E33.43163
G1 X81.74 Y85.62 E33.45641
G1 X81.46 Y85.52 E33.49103
G1 X81.42 Y85.51 E33.49639
G1 X81.35 Y85.46 E33.50704
G0 F9000 X82.65 Y85.65
G1 F1200 X83.66 Y85.38 E33.63291
G1 X84.63 Y84.42 E33.79659
G1 X84.67 Y84.25 E33.81786
G1 X84.94 Y83.25 E33.94169
G1 X84.94 Y83.26 E33.94303
G1 X84.89 Y83.49 E33.97134
G1 X84.84 Y84.32 E34.07077
G1 X84.59 Y84.88 E34.14419
G1 X84.26 Y85.19 E34.19886
G1 X83.89 Y85.38 E34.24883
G1 X83.43 Y85.48 E34.30497
G1 X83.38 Y85.51 E34.31209
G1 X83.33 Y85.52 E34.31783
G1 X82.65 Y85.65 E34.40145
G0 F9000 X82.64 Y86.06
;TYPE:WALL-OUTER
G1 F1200 X82.52 Y86.09 E34.41642
G1 X82.50 Y86.09 E34.41886
G1 X82.47 Y86.10 E34.42236
G1 X82.40 Y86.11 E34.43105
G1 X82.37 Y86.11 E34.43493
G1 X82.19 Y86.12 E34.45599
G1 X81.84 Y86.08 E34.49877
G1 X81.60 Y86.00 E34.52883
G1 X81.36 Y85.91 E34.55991
G1 X81.29 Y85.89 E34.56822
G1 X81.27 Y85.89 E34.57093
G1 X80.74 Y85.55 E34.64685
G1 X80.62 Y85.50 E34.66216
G1 X80.23 Y85.23 E34.71881
G1 X79.90 Y84.83 E34.78135
G1 X79.73 Y84.42 E34.83453
G1 X79.68 Y84.36 E34.84411
G1 X79.65 Y84.23 E34.85986
G1 X79.56 Y83.79 E34.91352
G1 X79.42 Y83.42 E34.96072
G1 X78.92 Y82.76 E35.06129
G1 X78.88 Y82.71 E35.06888
G1 X78.84 Y82.69 E35.07393
G1 X78.56 Y82.49 E35.11548
G1 X78.21 Y82.32 E35.16137
G1 X77.59 Y82.19 E35.23739
G1 X71.34 Y81.87 E35.98806
G1 X71.20 Y81.90 E36.00581
G1 X70.58 Y81.74 E36.08222
G1 X70.52 Y81.68 E36.09309
G1 X70.45 Y81.61 E36.10505
G1 X70.44 Y81.60 E36.10685
G1 X70.30 Y81.45 E36.13095
G1 X70.13 Y81.28 E36.16006
G1 X69.96 Y80.66 E36.23737
G1 X70.02 Y80.43 E36.26555
G1 X70.03 Y80.33 E36.27806
G1 X70.09 Y80.11 E36.30514
G1 X70.11 Y80.08 E36.30976
G1 X70.12 Y80.04 E36.31488
G1 X70.23 Y79.93 E36.33296
G1 X70.45 Y79.66 E36.37464
G1 X70.56 Y79.61 E36.38955
G1 X70.58 Y79.58 E36.39329
G1 X70.63 Y79.57 E36.39955
G1 X70.74 Y79.51 E36.41474
G1 X71.01 Y79.47 E36.44761
G1 X71.20 Y79.42 E36.47060
G1 X71.35 Y79.45 E36.48964
G1 X84.81 Y79.46 E38.10460
G1 X85.50 Y79.40 E38.18732
G1 X85.53 Y79.39 E38.19145
G1 X85.56 Y79.39 E38.19456
G1 X86.14 Y79.23 E38.26673
G1 X86.17 Y79.22 E38.27068
G1 X87.11 Y78.76 E38.39605
G1 X87.14 Y78.73 E38.40175
G1 X87.86 Y78.13 E38.51464
G1 X87.89 Y78.10 E38.51882
G1 X88.31 Y77.56 E38.60189
G1 X88.66 Y76.92 E38.68859
G1 X88.67 Y76.89 E38.69238
G1 X88.90 Y76.14 E38.78605
G1 X89.00 Y75.16 E38.90413
G1 X89.00 Y75.13 E38.90823
G1 X88.92 Y74.44 E38.99119
G1 X88.91 Y74.41 E38.99500
G1 X88.68 Y73.66 E39.08924
G1 X88.20 Y72.80 E39.20739
G1 X88.18 Y72.77 E39.21141
G1 X87.73 Y72.25 E39.29503
G1 X87.70 Y72.22 E39.29914
G1 X86.88 Y71.61 E39.42269
G1 X86.84 Y71.59 E39.42757
G1 X85.88 Y71.20 E39.55167
G1 X85.83 Y71.19 E39.55723
G1 X84.81 Y71.06 E39.68096
G1 X84.77 Y71.06 E39.68578
G1 X84.07 Y71.13 E39.77002
G1 X84.04 Y71.13 E39.77433
G1 X83.37 Y71.31 E39.85746
G1 X83.34 Y71.33 E39.86150
G1 X82.63 Y71.67 E39.95584
G1 X82.60 Y71.70 E39.96087
G1 X81.79 Y72.34 E40.08437
G1 X80.11 Y74.42 E40.40619
G1 X79.28 Y75.17 E40.53998
G1 X78.59 Y75.58 E40.63572
G1 X78.04 Y75.81 E40.70777
G1 X77.25 Y76.00 E40.80463
G1 X76.86 Y76.04 E40.85281
G1 X76.45 Y76.06 E40.90192
G1 X75.65 Y75.98 E40.99826
G1 X74.87 Y75.77 E41.09520
G1 X72.48 Y74.90 E41.40072
G1 X72.40 Y74.87 E41.41039
G1 X71.06 Y74.38 E41.58115
G1 X70.76 Y74.21 E41.62340
G1 X70.50 Y73.89 E41.67183
G1 X70.38 Y73.57 E41.71352
G1 X70.60 Y72.74 E41.81661
G1 X70.77 Y72.56 E41.84589
G1 X71.09 Y72.40 E41.88946
G1 X71.48 Y72.35 E41.93669
G1 X71.77 Y72.41 E41.97204
G1 X72.28 Y72.59 E42.03703
G1 X72.36 Y72.62 E42.04671
G1 X75.60 Y73.80 E42.46125
G1 X76.12 Y73.92 E42.52451
G1 X76.15 Y73.92 E42.52877
G1 X76.82 Y73.94 E42.60872
G1 X76.86 Y73.93 E42.61405
G1 X77.72 Y73.67 E42.72201
G1 X77.76 Y73.64 E42.72740
G1 X78.25 Y73.32 E42.79790
G1 X78.56 Y73.01 E42.85084
G1 X78.60 Y72.96 E42.85870
G1 X80.19 Y70.97 E43.16331
G1 X81.44 Y69.93 E43.35990
G1 X81.92 Y69.66 E43.42509
G1 X82.92 Y69.25 E43.55543
G1 X83.98 Y69.01 E43.68570
G1 X83.99 Y69.01 E43.68702
G1 X85.90 Y69.06 E43.91617
G1 X86.69 Y69.25 E44.01359
G1 X87.69 Y69.66 E44.14369
G1 X87.70 Y69.67 E44.14514
G1 X88.62 Y70.25 E44.27518
G1 X89.04 Y70.60 E44.34060
G1 X89.78 Y71.40 E44.47164
G1 X90.61 Y72.82 E44.66971
G1 X90.80 Y73.31 E44.73241
G1 X91.04 Y74.39 E44.86445
G1 X91.10 Y75.48 E44.99640
G1 X90.97 Y76.57 E45.12757
G1 X90.88 Y76.87 E45.16509
G1 X90.83 Y77.09 E45.19245
G1 X90.53 Y77.85 E45.29042
G1 X90.15 Y78.58 E45.38934
G1 X89.50 Y79.45 E45.51911
G1 X88.63 Y80.20 E45.65711
G1 X88.61 Y80.22 E45.66136
G1 X88.26 Y80.52 E45.71642
G1 X88.06 Y80.63 E45.74332
G1 X87.47 Y81.13 E45.83665
G1 X87.45 Y81.14 E45.83905
G1 X86.15 Y81.92 E46.02128
G1 X86.10 Y81.95 E46.02848
G1 X86.07 Y81.99 E46.03321
G1 X85.79 Y82.26 E46.08006
G1 X85.48 Y82.72 E46.14686
G1 X85.33 Y83.17 E46.20371
G1 X85.35 Y83.26 E46.21510
G1 X85.29 Y83.54 E46.24979
G1 X85.24 Y84.38 E46.35042
G1 X85.23 Y84.42 E46.35463
G1 X84.92 Y85.11 E46.44636
G1 X84.49 Y85.52 E46.51690
G1 X84.02 Y85.76 E46.58040
G1 X83.59 Y85.86 E46.63418
G1 X83.53 Y85.89 E46.64190
G1 X82.64 Y86.06 E46.75058
G0 F9000 X82.42 Y85.30
G1 F1200 X83.46 Y85.02 E46.87933
G1 X84.27 Y84.21 E47.01688
G1 X84.28 Y84.14 E47.02552
G1 X84.56 Y83.11 E47.15394
G1 X84.27 Y82.01 E47.29055
G1 X83.45 Y81.19 E47.42869
G1 X83.38 Y81.18 E47.43771
G1 X82.35 Y80.90 E47.56579
G1 X81.32 Y81.18 E47.69421
G1 X81.24 Y81.20 E47.70333
G1 X80.45 Y81.99 E47.83833
G1 X80.42 Y82.07 E47.84782
G1 X80.14 Y83.11 E47.97732
G1 X80.42 Y84.14 E48.10568
G1 X80.44 Y84.22 E48.11480
G1 X81.25 Y85.03 E48.25209
G1 X81.32 Y85.04 E48.26111
G1 X82.35 Y85.32 E48.38899
G1 X82.42 Y85.30 E48.39789
G0 F9000 X82.50 Y85.59
