;FLAVOR:UltiGCode
;TIME:482       
;MATERIAL:214       
;MATERIAL2:0         

;Layer count: 88
;LAYER:0
M107
G0 F9000 X110.35 Y107.37 Z0.30
G0 X110.35 Y107.37
;TYPE:SKIRT
G11
G1 F1200 X111.15 Y106.79 E0.11895
G1 X111.39 Y106.61 E0.15462
G1 X111.49 Y106.51 E0.17244
G1 X111.57 Y106.49 E0.18135
G1 X112.43 Y106.11 E0.29427
G1 X112.43 Y106.11 E0.29439
G1 X112.85 Y105.92 E0.35062
G1 X113.76 Y105.72 E0.46190
G1 X114.25 Y105.61 E0.52170
G1 X115.72 Y105.61 E0.69918
G1 X116.69 Y105.82 E0.81831
G1 X117.16 Y105.93 E0.87601
G1 X118.02 Y106.31 E0.98889
G1 X118.47 Y106.51 E1.04813
G1 X119.23 Y107.06 E1.16046
G1 X119.63 Y107.35 E1.21907
G1 X120.29 Y108.08 E1.33794
G1 X120.61 Y108.45 E1.39677
G1 X120.97 Y109.07 E1.48279
G1 X121.10 Y109.20 E1.50451
G1 X121.10 Y109.30 E1.51579
G1 X121.25 Y109.55 E1.55058
G1 X121.30 Y109.60 E1.55991
G1 X121.30 Y109.64 E1.56471
G1 X121.32 Y109.68 E1.57025
G1 X121.39 Y109.89 E1.59700
G1 X121.50 Y110.00 E1.61533
G1 X121.50 Y110.22 E1.64209
G1 X121.62 Y110.60 E1.68930
G1 X121.77 Y111.05 E1.74584
G1 X121.86 Y111.94 E1.85407
G1 X121.93 Y112.41 E1.91073
G1 X121.88 Y112.96 E1.97727
G1 X121.78 Y113.89 E2.08938
G1 X121.64 Y114.36 E2.14750
G1 X121.33 Y115.28 E2.26480
G1 X121.10 Y115.70 E2.32217
G1 X121.10 Y115.71 E2.32260
G1 X121.10 Y116.67 E2.43816
G1 X120.03 Y117.20 E2.58156
G1 X119.61 Y117.67 E2.65709
G1 X119.19 Y117.96 E2.71838
G1 X118.43 Y118.52 E2.83155
G1 X118.00 Y118.70 E2.88749
G1 X117.10 Y119.10 E3.00648
G1 X116.63 Y119.19 E3.06388
G1 X115.73 Y119.39 E3.17410
G1 X114.32 Y119.39 E3.34246
G1 X113.85 Y119.30 E3.40097
G1 X112.90 Y119.09 E3.51670
G1 X112.46 Y118.91 E3.57402
G1 X111.57 Y118.51 E3.69151
G1 X111.17 Y118.23 E3.75041
G1 X110.34 Y117.62 E3.87347
G1 X110.03 Y117.27 E3.92968
G1 X109.38 Y116.55 E4.04676
G1 X109.14 Y116.12 E4.10456
G1 X108.66 Y115.28 E4.22096
G1 X108.60 Y115.23 E4.23063
G1 X108.60 Y115.10 E4.24539
G1 X108.57 Y114.99 E4.25917
G1 X108.40 Y114.83 E4.28751
G1 X108.40 Y114.47 E4.33047
G1 X108.22 Y113.92 E4.39954
G1 X108.17 Y113.42 E4.46065
G1 X108.08 Y112.50 E4.57059
G1 X108.18 Y111.48 E4.69449
G1 X108.25 Y111.00 E4.75287
G1 X108.40 Y110.53 E4.81143
G1 X108.40 Y109.80 E4.89903
G1 X108.80 Y109.40 E4.96691
G1 X108.80 Y109.20 E4.99091
G1 X109.17 Y108.84 E5.05285
G1 X109.40 Y108.43 E5.10968
G1 X110.05 Y107.71 E5.22523
G1 X110.35 Y107.37 E5.27948
G0 F9000 X110.62 Y107.67
G1 F1200 X111.38 Y107.11 E5.39317
G1 X111.65 Y106.92 E5.43237
G1 X111.70 Y106.87 E5.44086
G1 X111.73 Y106.86 E5.44455
G1 X111.75 Y106.85 E5.44755
G1 X112.59 Y106.47 E5.55785
G1 X112.98 Y106.30 E5.60914
G1 X113.83 Y106.12 E5.71392
G1 X114.29 Y106.01 E5.77040
G1 X115.68 Y106.01 E5.93744
G1 X116.61 Y106.21 E6.05116
G1 X117.04 Y106.31 E6.10397
G1 X117.86 Y106.67 E6.21201
G1 X118.27 Y106.86 E6.26609
G1 X119.00 Y107.39 E6.37362
G1 X119.36 Y107.65 E6.42708
G1 X119.99 Y108.35 E6.54059
G1 X120.29 Y108.69 E6.59432
G1 X120.65 Y109.32 E6.68200
G1 X120.70 Y109.37 E6.69015
G1 X120.70 Y109.40 E6.69435
G1 X120.73 Y109.46 E6.70252
G1 X120.96 Y109.85 E6.75575
G1 X121.04 Y110.11 E6.78907
G1 X121.10 Y110.17 E6.79891
G1 X121.10 Y110.29 E6.81331
G1 X121.23 Y110.69 E6.86481
G1 X121.38 Y111.13 E6.91983
G1 X121.47 Y112.00 E7.02492
G1 X121.53 Y112.42 E7.07542
G1 X121.48 Y112.92 E7.13618
G1 X121.38 Y113.81 E7.24358
G1 X121.26 Y114.24 E7.29670
G1 X120.97 Y115.12 E7.40880
G1 X120.75 Y115.51 E7.46112
G1 X120.70 Y115.60 E7.47413
G1 X120.70 Y116.42 E7.57265
G1 X119.79 Y116.88 E7.69511
G1 X119.34 Y117.37 E7.77472
G1 X118.96 Y117.64 E7.83059
G1 X118.23 Y118.17 E7.93896
G1 X117.80 Y118.35 E7.99499
G1 X116.97 Y118.72 E8.10383
G1 X116.55 Y118.80 E8.15549
G1 X115.69 Y118.99 E8.26178
G1 X114.36 Y118.99 E8.42066
G1 X113.93 Y118.90 E8.47392
G1 X113.02 Y118.71 E8.58475
G1 X112.62 Y118.54 E8.63708
G1 X111.77 Y118.16 E8.74936
G1 X111.40 Y117.90 E8.80309
G1 X110.61 Y117.33 E8.92039
G1 X110.32 Y116.99 E8.97346
G1 X109.70 Y116.31 E9.08365
G1 X109.47 Y115.89 E9.14091
G1 X109.02 Y115.11 E9.24924
G1 X109.01 Y115.07 E9.25474
G1 X109.00 Y115.06 E9.25593
G1 X109.00 Y115.05 E9.25785
G1 X108.92 Y114.78 E9.29081
G1 X108.80 Y114.66 E9.31134
G1 X108.80 Y114.41 E9.34194
G1 X108.61 Y113.84 E9.41340
G1 X108.58 Y113.42 E9.46390
G1 X108.48 Y112.50 E9.57456
G1 X108.58 Y111.53 E9.69267
G1 X108.64 Y111.08 E9.74608
G1 X108.80 Y110.59 E9.80805
G1 X108.80 Y109.97 E9.88317
G1 X109.20 Y109.57 E9.95105
G1 X109.20 Y109.37 E9.97505
G1 X109.48 Y109.08 E10.02325
G1 X109.50 Y109.05 E10.02782
G1 X109.73 Y108.66 E10.08148
G1 X110.34 Y107.98 E10.19202
G1 X110.62 Y107.67 E10.24150
G0 F9000 X110.89 Y107.97
G1 F1200 X111.62 Y107.44 E10.34979
G1 X111.95 Y107.20 E10.39869
G1 X112.75 Y106.84 E10.50394
G1 X113.10 Y106.68 E10.55039
G1 X113.96 Y106.50 E10.65515
G1 X114.33 Y106.41 E10.70181
G1 X115.64 Y106.41 E10.85841
G1 X116.52 Y106.60 E10.96675
G1 X116.91 Y106.69 E11.01449
G1 X117.70 Y107.04 E11.11780
G1 X118.07 Y107.21 E11.16673
G1 X118.76 Y107.71 E11.26960
G1 X119.09 Y107.95 E11.31800
G1 X119.69 Y108.62 E11.42615
G1 X119.96 Y108.92 E11.47479
G1 X120.39 Y109.66 E11.57725
G1 X120.39 Y109.66 E11.57737
G1 X120.59 Y110.01 E11.62559
G1 X120.69 Y110.33 E11.66548
G1 X120.70 Y110.33 E11.66684
G1 X120.70 Y110.35 E11.66888
G1 X120.86 Y110.85 E11.73134
G1 X120.99 Y111.22 E11.77817
G1 X121.07 Y112.04 E11.87745
G1 X121.12 Y112.43 E11.92444
G1 X121.08 Y112.88 E11.97941
G1 X120.99 Y113.73 E12.08211
G1 X120.87 Y114.12 E12.13010
G1 X120.60 Y114.96 E12.23703
G1 X120.41 Y115.31 E12.28435
G1 X120.30 Y115.49 E12.30984
G1 X120.30 Y116.17 E12.39156
G1 X119.54 Y116.55 E12.49347
G1 X119.08 Y117.07 E12.57673
G1 X118.73 Y117.31 E12.62727
G1 X118.04 Y117.82 E12.73081
G1 X117.67 Y117.98 E12.77900
G1 X116.85 Y118.34 E12.88548
G1 X116.47 Y118.41 E12.93238
G1 X115.64 Y118.59 E13.03399
G1 X114.40 Y118.59 E13.18315
G1 X114.00 Y118.51 E13.23139
G1 X113.14 Y118.33 E13.33707
G1 X112.78 Y118.17 E13.38445
G1 X111.96 Y117.81 E13.49147
G1 X111.63 Y117.58 E13.54011
G1 X110.88 Y117.03 E13.65174
G1 X110.64 Y116.75 E13.69545
G1 X110.03 Y116.08 E13.80489
G1 X109.82 Y115.70 E13.85678
G1 X109.39 Y114.95 E13.96033
G1 X109.28 Y114.59 E14.00528
G1 X109.27 Y114.57 E14.00831
G1 X109.20 Y114.50 E14.02087
G1 X109.20 Y114.34 E14.03923
G1 X109.01 Y113.76 E14.11297
G1 X108.97 Y113.34 E14.16347
G1 X108.88 Y112.50 E14.26436
G1 X108.98 Y111.57 E14.37669
G1 X109.03 Y111.17 E14.42490
G1 X109.20 Y110.66 E14.49002
G1 X109.20 Y110.13 E14.55302
G1 X109.53 Y109.80 E14.60902
G1 X109.60 Y109.68 E14.62580
G1 X109.60 Y109.53 E14.64368
G1 X109.80 Y109.33 E14.67813
G1 X109.85 Y109.25 E14.68920
G1 X110.05 Y108.90 E14.73786
G1 X110.64 Y108.25 E14.84330
G1 X110.89 Y107.97 E14.88810
G0 F9000 X111.16 Y108.26
G1 F1200 X111.85 Y107.76 E14.99100
G1 X112.15 Y107.55 E15.03483
G1 X112.91 Y107.21 E15.13502
G1 X112.91 Y107.21 E15.13514
G1 X113.23 Y107.06 E15.17676
G1 X114.05 Y106.89 E15.27785
G1 X114.38 Y106.81 E15.31834
G1 X115.60 Y106.81 E15.46450
G1 X116.44 Y106.99 E15.56745
G1 X116.78 Y107.07 E15.61012
G1 X117.54 Y107.40 E15.70871
G1 X117.87 Y107.55 E15.75253
G1 X118.53 Y108.04 E15.85061
G1 X118.82 Y108.25 E15.89384
G1 X119.39 Y108.88 E15.99664
G1 X119.63 Y109.16 E16.04017
G1 X120.05 Y109.87 E16.13893
G1 X120.22 Y110.17 E16.18119
G1 X120.47 Y110.95 E16.27902
G1 X120.59 Y111.30 E16.32364
G1 X120.68 Y112.10 E16.41969
G1 X120.72 Y112.44 E16.46063
G1 X120.68 Y112.84 E16.50969
G1 X120.60 Y113.65 E16.60768
G1 X120.49 Y114.00 E16.65054
G1 X120.23 Y114.80 E16.75231
G1 X120.06 Y115.11 E16.79469
G1 X119.90 Y115.39 E16.83265
G1 X119.90 Y115.93 E16.89757
G1 X119.29 Y116.23 E16.97898
G1 X118.81 Y116.77 E17.06581
G1 X118.54 Y116.95 E17.10473
G1 X117.84 Y117.47 E17.20976
G1 X117.51 Y117.61 E17.25262
G1 X116.73 Y117.95 E17.35410
G1 X116.40 Y118.01 E17.39489
G1 X115.60 Y118.19 E17.49308
G1 X114.44 Y118.19 E17.63264
G1 X114.08 Y118.12 E17.67588
G1 X113.26 Y117.94 E17.77652
G1 X112.94 Y117.81 E17.81884
G1 X112.16 Y117.46 E17.92075
G1 X111.87 Y117.25 E17.96423
G1 X111.15 Y116.73 E18.07020
G1 X110.94 Y116.49 E18.10924
G1 X110.36 Y115.84 E18.21323
G1 X110.20 Y115.55 E18.25341
G1 X109.76 Y114.79 E18.35840
G1 X109.65 Y114.44 E18.40289
G1 X109.63 Y114.35 E18.41337
G1 X109.60 Y114.33 E18.41761
G1 X109.60 Y114.28 E18.42373
G1 X109.40 Y113.68 E18.49974
G1 X109.37 Y113.30 E18.54495
G1 X109.28 Y112.50 E18.64125
G1 X109.38 Y111.62 E18.74779
G1 X109.42 Y111.26 E18.79090
G1 X109.60 Y110.72 E18.85932
G1 X109.60 Y110.30 E18.91008
G1 X109.85 Y110.05 E18.95268
G1 X110.00 Y109.79 E18.98843
G1 X110.00 Y109.70 E18.99935
G1 X110.12 Y109.58 E19.02039
G1 X110.20 Y109.45 E19.03770
G1 X110.38 Y109.14 E19.08119
G1 X110.94 Y108.52 E19.18162
G1 X111.16 Y108.26 E19.22175
G10
G0 F9000 X113.46 Y110.79
;TYPE:WALL-OUTER
G11
G1 F1200 X113.85 Y110.51 E19.27938
G1 X114.29 Y110.32 E19.33713
G1 X114.76 Y110.21 E19.39482
G1 X115.24 Y110.21 E19.45218
G1 X115.71 Y110.31 E19.50984
G1 X116.15 Y110.51 E19.56755
G1 X116.54 Y110.79 E19.62525
G1 X116.86 Y111.15 E19.68293
G1 X117.10 Y111.57 E19.74067
G1 X117.25 Y112.02 E19.79846
G1 X117.30 Y112.50 E19.85625
G1 X117.25 Y112.98 E19.91357
G1 X117.10 Y113.43 E19.97121
G1 X116.86 Y113.85 E20.02868
G1 X116.54 Y114.21 E20.08637
G1 X116.15 Y114.49 E20.14381
G1 X115.71 Y114.69 E20.20183
G1 X115.24 Y114.79 E20.25987
G1 X114.76 Y114.79 E20.31723
G1 X114.29 Y114.69 E20.37527
G1 X113.85 Y114.49 E20.43307
G1 X113.46 Y114.21 E20.49000
G1 X113.14 Y113.85 E20.54743
G1 X112.90 Y113.44 E20.60533
G1 X112.75 Y112.98 E20.66328
G1 X112.70 Y112.50 E20.72085
G1 X112.75 Y112.03 E20.77755
G1 X112.90 Y111.57 E20.83584
G1 X113.14 Y111.15 E20.89395
G1 X113.46 Y110.79 E20.95138
G0 F9000 X113.86 Y111.24
G1 F1200 X113.62 Y111.50 E20.99404
G1 X113.45 Y111.81 E21.03662
G1 X113.34 Y112.15 E21.07939
G1 X113.30 Y112.50 E21.12198
G1 X113.33 Y112.76 E21.15274
G1 X113.34 Y112.85 E21.16459
G1 X113.42 Y113.10 E21.19533
G1 X113.45 Y113.19 E21.20736
G1 X113.57 Y113.41 E21.23805
G1 X113.63 Y113.50 E21.25005
G1 X113.86 Y113.76 E21.29253
G1 X114.15 Y113.97 E21.33520
G1 X114.47 Y114.12 E21.37797
G1 X114.73 Y114.17 E21.40876
G1 X114.82 Y114.19 E21.42055
G1 X115.18 Y114.19 E21.46315
G1 X115.43 Y114.14 E21.49391
G1 X115.53 Y114.12 E21.50596
G1 X115.85 Y113.97 E21.54862
G1 X116.14 Y113.76 E21.59129
G1 X116.38 Y113.50 E21.63394
G1 X116.50 Y113.28 E21.66437
G1 X116.55 Y113.19 E21.67653
G1 X116.63 Y112.95 E21.70712
G1 X116.66 Y112.85 E21.71930
G1 X116.69 Y112.60 E21.74970
G1 X116.70 Y112.50 E21.76177
G1 X116.66 Y112.15 E21.80449
G1 X116.55 Y111.81 E21.84725
G1 X116.38 Y111.50 E21.88984
G1 X116.14 Y111.24 E21.93249
G1 X115.85 Y111.03 E21.97526
G1 X115.76 Y110.99 E21.98708
G1 X115.53 Y110.88 E22.01792
G1 X115.18 Y110.81 E22.06061
G1 X114.82 Y110.81 E22.10309
G1 X114.48 Y110.88 E22.14567
G1 X114.39 Y110.92 E22.15755
G1 X114.15 Y111.03 E22.18855
G1 X113.86 Y111.24 E22.23122
G0 F9000 X113.72 Y111.18
;TYPE:FILL
G1 F1200 X113.37 Y111.11 E22.26916
G1 X113.37 Y111.68 E22.30815
G1 X112.96 Y111.83 E22.35008
G1 X113.01 Y112.45 E22.39818
G1 X113.22 Y112.93 E22.46143
G0 F9000 X113.00 Y113.28
G1 F1200 X114.22 Y114.50 E22.66787
G0 F9000 X114.56 Y114.28
G1 F1200 X115.05 Y114.49 E22.73029
G1 X115.54 Y114.41 E22.77544
G1 X116.05 Y114.36 E22.81551
G1 X116.16 Y113.90 E22.85336
G1 X116.67 Y113.84 E22.89122
G1 X116.65 Y113.26 E22.93028
G1 X117.05 Y113.09 E22.97261
G1 X116.98 Y112.46 E23.02101
G1 X116.74 Y111.93 E23.09054
G0 F9000 X116.93 Y111.56
G1 F1200 X115.95 Y110.57 E23.25821
G0 F9000 X115.55 Y110.75
G1 F1200 X115.04 Y110.51 E23.32476
G1 X114.53 Y110.57 E23.37261
G1 X114.00 Y110.61 E23.41274
G1 X114.04 Y110.93 E23.45141
;LAYER:1
M106 S5
G0 F9000 X114.15 Y111.03 Z0.40
;TYPE:WALL-OUTER
G1 F600 X113.86 Y111.24 E23.46567
G1 X113.62 Y111.50 E23.47989
G1 X113.56 Y111.61 E23.48501
G1 X113.45 Y111.81 E23.49408
G1 X113.41 Y111.93 E23.49928
G1 X113.34 Y112.15 E23.50834
G1 X113.32 Y112.28 E23.51349
G1 X113.30 Y112.50 E23.52254
G1 X113.32 Y112.72 E23.53150
G1 X113.34 Y112.85 E23.53673
G1 X113.45 Y113.19 E23.55099
G1 X113.62 Y113.50 E23.56519
G1 X113.86 Y113.76 E23.57940
G1 X114.15 Y113.97 E23.59363
G1 X114.47 Y114.12 E23.60788
G1 X114.82 Y114.19 E23.62211
G1 X115.18 Y114.19 E23.63627
G1 X115.53 Y114.12 E23.65051
G1 X115.85 Y113.97 E23.66476
G1 X116.14 Y113.76 E23.67899
G1 X116.38 Y113.50 E23.69320
G1 X116.55 Y113.19 E23.70740
G1 X116.66 Y112.85 E23.72166
G1 X116.69 Y112.63 E23.73058
G1 X116.70 Y112.50 E23.73581
G1 X116.69 Y112.37 E23.74104
G1 X116.66 Y112.15 E23.75001
G1 X116.62 Y112.02 E23.75522
G1 X116.55 Y111.81 E23.76430
G1 X116.49 Y111.70 E23.76948
G1 X116.38 Y111.50 E23.77855
G1 X116.14 Y111.24 E23.79271
G1 X115.85 Y111.03 E23.80697
G1 X115.52 Y110.88 E23.82124
G1 X115.40 Y110.86 E23.82639
G1 X115.18 Y110.81 E23.83543
G1 X114.82 Y110.81 E23.84955
G1 X114.70 Y110.83 E23.85477
G1 X114.47 Y110.88 E23.86382
G1 X114.15 Y111.03 E23.87804
G0 F9000 X113.84 Y110.52
G1 F600 X114.28 Y110.32 E23.89732
G1 X114.75 Y110.22 E23.91652
G1 X115.24 Y110.21 E23.93600
G1 X115.70 Y110.31 E23.95489
G1 X116.14 Y110.51 E23.97411
G1 X116.53 Y110.79 E23.99333
G1 X116.85 Y111.14 E24.01253
G1 X116.86 Y111.15 E24.01295
G1 X117.09 Y111.56 E24.03176
G1 X117.10 Y111.57 E24.03223
G1 X117.25 Y112.02 E24.05103
G1 X117.30 Y112.49 E24.07022
G1 X117.30 Y112.50 E24.07067
G1 X117.25 Y112.98 E24.08986
G1 X117.10 Y113.43 E24.10892
G1 X116.86 Y113.85 E24.12811
G1 X116.54 Y114.21 E24.14745
G1 X116.15 Y114.49 E24.16658
G1 X115.71 Y114.69 E24.18583
G1 X115.24 Y114.79 E24.20517
G1 X114.76 Y114.79 E24.22425
G1 X114.29 Y114.69 E24.24356
G1 X113.85 Y114.49 E24.26281
G1 X113.47 Y114.21 E24.28182
G1 X113.14 Y113.85 E24.30128
G1 X112.90 Y113.43 E24.32047
G1 X112.75 Y112.98 E24.33953
G1 X112.75 Y112.97 E24.34001
G1 X112.70 Y112.50 E24.35884
G1 X112.75 Y112.04 E24.37742
G1 X112.75 Y112.02 E24.37798
G1 X112.90 Y111.58 E24.39674
G1 X112.90 Y111.57 E24.39721
G1 X113.13 Y111.16 E24.41599
G1 X113.46 Y110.80 E24.43525
G1 X113.46 Y110.79 E24.43568
G1 X113.84 Y110.52 E24.45454
G0 F9000 X114.43 Y110.43
;TYPE:FILL
G1 F600 X112.93 Y111.93 E24.53962
G0 F9000 X113.19 Y112.24
G1 F600 X113.02 Y112.69 E24.55859
G1 X113.12 Y113.15 E24.57332
G1 X113.19 Y113.65 E24.58623
G1 X113.66 Y113.74 E24.59875
G1 X113.74 Y114.23 E24.61147
G1 X114.34 Y114.20 E24.62472
G1 X114.52 Y114.58 E24.63916
G1 X115.19 Y114.48 E24.65657
G1 X116.07 Y114.16 E24.68344
G1 X116.69 Y113.55 E24.70501
G1 X116.98 Y112.69 E24.73126
G1 X116.95 Y112.15 E24.74786
G1 X116.93 Y111.60 E24.76189
G1 X116.50 Y111.47 E24.77482
G1 X116.46 Y110.94 E24.78727
G1 X115.91 Y110.93 E24.79999
G1 X115.77 Y110.50 E24.81346
G1 X115.18 Y110.52 E24.82848
G1 X114.74 Y110.68 E24.84728
;LAYER:2
M106 S10
G0 F9000 X114.82 Y110.81 Z0.50
;TYPE:WALL-OUTER
G1 F540 X114.47 Y110.88 E24.86151
G1 X114.15 Y111.03 E24.87577
G1 X113.86 Y111.24 E24.88999
G1 X113.62 Y111.50 E24.90421
G1 X113.45 Y111.81 E24.91841
G1 X113.40 Y111.96 E24.92487
G1 X113.34 Y112.15 E24.93266
G1 X113.32 Y112.31 E24.93906
G1 X113.30 Y112.50 E24.94682
G1 X113.34 Y112.85 E24.96106
G1 X113.45 Y113.19 E24.97531
G1 X113.62 Y113.50 E24.98951
G1 X113.86 Y113.76 E25.00373
G1 X114.02 Y113.88 E25.01140
G1 X114.15 Y113.97 E25.01795
G1 X114.33 Y114.05 E25.02569
G1 X114.47 Y114.12 E25.03221
G1 X114.66 Y114.16 E25.03994
G1 X114.82 Y114.19 E25.04644
G1 X115.18 Y114.19 E25.06060
G1 X115.36 Y114.15 E25.06828
G1 X115.53 Y114.12 E25.07483
G1 X115.70 Y114.04 E25.08251
G1 X115.85 Y113.97 E25.08909
G1 X116.01 Y113.86 E25.09681
G1 X116.14 Y113.76 E25.10331
G1 X116.38 Y113.50 E25.11753
G1 X116.55 Y113.19 E25.13172
G1 X116.66 Y112.85 E25.14598
G1 X116.70 Y112.50 E25.16018
G1 X116.69 Y112.34 E25.16661
G1 X116.66 Y112.15 E25.17437
G1 X116.61 Y111.99 E25.18085
G1 X116.55 Y111.81 E25.18863
G1 X116.38 Y111.50 E25.20283
G1 X116.14 Y111.24 E25.21704
G1 X115.85 Y111.03 E25.23127
G1 X115.53 Y110.88 E25.24552
G1 X115.18 Y110.81 E25.25975
G1 X114.82 Y110.81 E25.27391
G0 F9000 X114.74 Y110.22
G1 F540 X114.76 Y110.21 E25.27465
G1 X115.24 Y110.21 E25.29377
G1 X115.69 Y110.31 E25.31229
G1 X115.71 Y110.31 E25.31295
G1 X116.15 Y110.51 E25.33221
G1 X116.52 Y110.78 E25.35070
G1 X116.54 Y110.79 E25.35148
G1 X116.86 Y111.15 E25.37065
G1 X117.09 Y111.55 E25.38923
G1 X117.10 Y111.57 E25.38999
G1 X117.24 Y112.01 E25.40844
G1 X117.25 Y112.02 E25.40920
G1 X117.30 Y112.48 E25.42770
