;FLAVOR:UltiGCode
;TIME:1167      
;MATERIAL:1469      
;MATERIAL2:0         

;Layer count: 11
;LAYER:0
M107
G0 F9000 X51.56 Y51.11 Z0.30
G0 X51.56 Y51.11
;TYPE:SKIRT
G11
G1 F1200 X52.58 Y50.37 E0.15066
G1 X53.09 Y50.00 E0.22598
G1 X54.24 Y49.48 E0.37833
G1 X54.81 Y49.23 E0.45295
G1 X56.05 Y48.97 E0.60492
G1 X56.66 Y48.84 E0.67903
G1 X58.54 Y48.84 E0.90523
G1 X59.78 Y49.10 E1.05720
G1 X60.39 Y49.23 E1.13181
G1 X61.54 Y49.74 E1.28351
G1 X62.11 Y50.00 E1.35829
G1 X63.14 Y50.74 E1.51044
G1 X63.64 Y51.11 E1.58489
G1 X64.48 Y52.04 E1.73605
G1 X64.90 Y52.51 E1.81100
G1 X65.53 Y53.60 E1.96249
G1 X65.84 Y54.14 E2.03733
G1 X66.23 Y55.33 E2.18734
G1 X66.42 Y55.93 E2.26274
G1 X66.55 Y57.17 E2.41283
G1 X66.62 Y57.80 E2.48865
G1 X66.56 Y58.43 E2.56454
G1 X66.42 Y59.69 E2.71610
G1 X66.23 Y60.27 E2.79056
G1 X65.84 Y61.47 E2.94186
G1 X65.53 Y62.01 E3.01631
G1 X64.90 Y63.11 E3.16840
G1 X64.48 Y63.57 E3.24300
G1 X63.64 Y64.51 E3.39484
G1 X63.14 Y64.88 E3.46905
G1 X62.11 Y65.62 E3.62161
G1 X61.54 Y65.88 E3.69682
G1 X60.38 Y66.39 E3.84831
G1 X59.77 Y66.52 E3.92369
G1 X58.54 Y66.78 E4.07399
G1 X56.66 Y66.78 E4.29947
G1 X56.06 Y66.65 E4.37400
G1 X54.82 Y66.39 E4.52614
G1 X54.25 Y66.14 E4.60066
G1 X53.09 Y65.62 E4.75333
G1 X52.58 Y65.25 E4.82804
G1 X51.56 Y64.51 E4.97957
G1 X51.15 Y64.05 E5.05401
G1 X50.30 Y63.11 E5.20601
G1 X49.99 Y62.57 E5.28116
G1 X49.36 Y61.48 E5.43207
G1 X49.17 Y60.89 E5.50664
G1 X49.17 Y60.89 E5.50676
G1 X48.78 Y59.69 E5.65833
G1 X48.71 Y59.07 E5.73266
G1 X48.58 Y57.81 E5.88446
G1 X48.71 Y56.54 E6.03746
G1 X48.78 Y55.93 E6.11194
G1 X49.17 Y54.73 E6.26306
G1 X49.36 Y54.14 E6.33781
G1 X49.99 Y53.05 E6.48866
G1 X50.30 Y52.51 E6.56361
G1 X51.15 Y51.57 E6.71544
G1 X51.56 Y51.11 E6.78979
G0 F9000 X51.83 Y51.41
G1 F1200 X52.81 Y50.69 E6.93558
G1 X52.81 Y50.69 E6.93575
G1 X53.29 Y50.35 E7.00594
G1 X54.41 Y49.85 E7.15318
G1 X54.94 Y49.61 E7.22269
G1 X56.13 Y49.36 E7.36965
G1 X56.70 Y49.24 E7.43884
G1 X58.50 Y49.24 E7.65484
G1 X59.70 Y49.49 E7.80168
G1 X60.26 Y49.61 E7.87137
G1 X61.38 Y50.11 E8.01792
G1 X61.91 Y50.34 E8.08770
G1 X62.90 Y51.06 E8.23469
G1 X63.37 Y51.41 E8.30415
G1 X64.19 Y52.31 E8.45038
G1 X64.57 Y52.74 E8.52014
G1 X65.18 Y53.80 E8.66659
G1 X65.47 Y54.31 E8.73642
G1 X65.85 Y55.46 E8.88161
G1 X66.03 Y56.01 E8.95193
G1 X66.16 Y57.22 E9.09696
G1 X66.22 Y57.80 E9.16771
G1 X66.16 Y58.39 E9.23843
G1 X66.03 Y59.60 E9.38505
G1 X65.85 Y60.15 E9.45430
G1 X65.47 Y61.31 E9.60067
G1 X65.19 Y61.81 E9.67012
G1 X64.57 Y62.87 E9.81716
G1 X64.19 Y63.31 E9.88675
G1 X63.37 Y64.21 E10.03341
G1 X62.90 Y64.55 E10.10256
G1 X61.91 Y65.28 E10.25012
G1 X61.37 Y65.51 E10.32018
G1 X60.26 Y66.01 E10.46667
G1 X59.69 Y66.13 E10.53692
G1 X58.50 Y66.38 E10.68230
G1 X56.71 Y66.38 E10.89770
G1 X56.14 Y66.26 E10.96723
G1 X54.94 Y66.01 E11.11433
G1 X54.41 Y65.77 E11.18374
G1 X53.29 Y65.27 E11.33125
G1 X52.82 Y64.93 E11.40100
G1 X51.83 Y64.21 E11.54754
G1 X51.44 Y63.78 E11.61696
G1 X50.63 Y62.87 E11.76378
G1 X50.33 Y62.37 E11.83383
G1 X49.73 Y61.31 E11.97974
G1 X49.55 Y60.76 E12.04911
G1 X49.55 Y60.76 E12.04923
G1 X49.17 Y59.60 E12.19582
G1 X49.11 Y59.03 E12.26521
G1 X48.98 Y57.81 E12.41195
G1 X49.11 Y56.59 E12.55988
G1 X49.17 Y56.01 E12.62930
G1 X49.55 Y54.85 E12.77536
G1 X49.73 Y54.30 E12.84507
G1 X50.34 Y53.25 E12.99098
G1 X50.63 Y52.74 E13.06082
G1 X51.45 Y51.83 E13.20764
G1 X51.83 Y51.41 E13.27689
G0 F9000 X52.10 Y51.70
G1 F1200 X53.05 Y51.01 E13.41776
G1 X53.49 Y50.69 E13.48279
G1 X54.57 Y50.21 E13.62493
G1 X55.06 Y49.99 E13.68939
G1 X56.22 Y49.75 E13.83134
G1 X56.74 Y49.64 E13.89549
G1 X58.46 Y49.64 E14.10141
G1 X59.61 Y49.88 E14.24322
G1 X60.14 Y49.99 E14.30787
G1 X61.22 Y50.47 E14.44947
G1 X61.71 Y50.69 E14.51410
G1 X62.67 Y51.39 E14.65610
G1 X63.10 Y51.70 E14.72042
G1 X63.89 Y52.58 E14.86173
G1 X64.25 Y52.98 E14.92647
G1 X64.84 Y54.00 E15.06781
G1 X65.11 Y54.47 E15.13249
G1 X65.47 Y55.58 E15.27274
G1 X65.47 Y55.58 E15.27286
G1 X65.64 Y56.10 E15.33813
G1 X65.76 Y57.26 E15.47834
G1 X65.82 Y57.80 E15.54390
G1 X65.76 Y58.34 E15.60931
G1 X65.64 Y59.52 E15.75097
G1 X65.47 Y60.03 E15.81533
G1 X65.11 Y61.15 E15.95665
G1 X64.84 Y61.61 E16.02100
G1 X64.25 Y62.64 E16.16287
G1 X63.89 Y63.04 E16.22745
G1 X63.10 Y63.91 E16.36909
G1 X62.67 Y64.23 E16.43335
G1 X61.71 Y64.93 E16.57568
G1 X61.21 Y65.15 E16.64064
G1 X60.13 Y65.63 E16.78213
G1 X59.62 Y65.73 E16.84589
G1 X58.46 Y65.98 E16.98771
G1 X56.75 Y65.98 E17.19315
G1 X56.22 Y65.87 E17.25764
G1 X55.06 Y65.63 E17.39958
G1 X54.57 Y65.41 E17.46400
G1 X53.49 Y64.92 E17.60646
G1 X53.05 Y64.61 E17.67098
G1 X52.10 Y63.91 E17.81255
G1 X51.74 Y63.52 E17.87687
G1 X50.95 Y62.64 E18.01876
G1 X50.68 Y62.17 E18.08365
G1 X50.09 Y61.15 E18.22472
G1 X49.93 Y60.64 E18.28919
G1 X49.93 Y60.64 E18.28931
G1 X49.56 Y59.52 E18.43078
G1 X49.51 Y58.98 E18.49510
G1 X49.38 Y57.81 E18.63677
G1 X49.51 Y56.63 E18.77951
G1 X49.56 Y56.09 E18.84386
G1 X49.93 Y54.98 E18.98503
G1 X50.10 Y54.46 E19.04969
G1 X50.68 Y53.45 E19.19054
G1 X50.95 Y52.98 E19.25538
G1 X51.74 Y52.10 E19.39684
G1 X51.74 Y52.10 E19.39701
G1 X52.10 Y51.70 E19.46150
G10
G0 F9000 X54.66 Y54.54
;TYPE:WALL-INNER
G11
G1 F1200 X55.29 Y54.08 E19.55487
G1 X55.40 Y54.00 E19.57179
G1 X56.24 Y53.63 E19.68170
G1 X57.14 Y53.44 E19.79211
G1 X58.06 Y53.44 E19.90227
G1 X58.96 Y53.63 E20.01268
G1 X59.80 Y54.00 E20.12286
G1 X60.43 Y54.46 E20.21639
G1 X60.54 Y54.54 E20.23315
G1 X61.16 Y55.23 E20.34361
G1 X61.62 Y56.02 E20.45387
G1 X61.86 Y56.76 E20.54749
G1 X61.90 Y56.89 E20.56365
G1 X61.98 Y57.67 E20.65789
G1 X62.00 Y57.81 E20.67419
G1 X61.90 Y58.72 E20.78459
G1 X61.62 Y59.60 E20.89514
G1 X61.55 Y59.72 E20.91137
G1 X61.16 Y60.39 E21.00535
G1 X60.54 Y61.08 E21.11539
G1 X59.80 Y61.62 E21.22545
G1 X59.67 Y61.67 E21.24215
G1 X58.96 Y61.99 E21.33595
G1 X58.83 Y62.02 E21.35237
G1 X58.06 Y62.18 E21.44647
G1 X57.14 Y62.18 E21.55675
G1 X57.01 Y62.15 E21.57294
G1 X56.24 Y61.99 E21.66680
G1 X56.12 Y61.93 E21.68346
G1 X55.40 Y61.62 E21.77709
G1 X54.66 Y61.08 E21.88748
G1 X54.04 Y60.39 E21.99777
G1 X53.98 Y60.27 E22.01422
G1 X53.58 Y59.60 E22.10814
G1 X53.30 Y58.72 E22.21830
G1 X53.20 Y57.81 E22.32870
G1 X53.28 Y57.03 E22.42221
G1 X53.30 Y56.90 E22.43838
G1 X53.54 Y56.16 E22.53223
G1 X53.58 Y56.02 E22.54877
G1 X54.04 Y55.23 E22.65930
G1 X54.66 Y54.54 E22.77001
G0 F9000 X56.09 Y56.13
G1 F1200 X56.01 Y56.23 E22.78582
G1 X55.78 Y56.49 E22.82669
G1 X55.54 Y56.89 E22.88331
G1 X55.50 Y57.02 E22.89868
G1 X55.40 Y57.34 E22.94016
G1 X55.38 Y57.47 E22.95487
G1 X55.35 Y57.81 E22.99602
G1 X55.40 Y58.28 E23.05261
G1 X55.50 Y58.60 E23.09344
G1 X55.54 Y58.73 E23.10934
G1 X55.71 Y59.02 E23.15032
G1 X55.78 Y59.13 E23.16576
G1 X56.00 Y59.39 E23.20638
G1 X56.09 Y59.48 E23.22227
G1 X56.48 Y59.76 E23.27882
G1 X56.79 Y59.90 E23.31965
G1 X56.90 Y59.95 E23.33496
G1 X57.24 Y60.02 E23.37602
G1 X57.36 Y60.05 E23.39163
G1 X57.83 Y60.05 E23.44803
G1 X58.17 Y59.98 E23.48910
G1 X58.30 Y59.95 E23.50471
G1 X58.61 Y59.81 E23.54591
G1 X58.73 Y59.76 E23.56148
G1 X59.11 Y59.48 E23.61777
G1 X59.34 Y59.23 E23.65865
G1 X59.42 Y59.13 E23.67420
G1 X59.59 Y58.84 E23.71468
G1 X59.66 Y58.73 E23.73055
G1 X59.76 Y58.40 E23.77138
G1 X59.80 Y58.28 E23.78717
G1 X59.85 Y57.81 E23.84328
G1 X59.84 Y57.68 E23.85883
G1 X59.80 Y57.34 E23.90011
G1 X59.76 Y57.22 E23.91548
G1 X59.66 Y56.89 E23.95684
G1 X59.42 Y56.48 E24.01330
G1 X59.34 Y56.39 E24.02867
G1 X59.11 Y56.13 E24.06989
G1 X59.00 Y56.06 E24.08561
G1 X58.73 Y55.86 E24.12628
G1 X58.61 Y55.81 E24.14153
G1 X58.29 Y55.66 E24.18321
G1 X58.17 Y55.64 E24.19828
G1 X57.84 Y55.57 E24.23937
G1 X57.37 Y55.57 E24.29541
G1 X57.24 Y55.59 E24.31085
G1 X56.90 Y55.67 E24.35241
G1 X56.79 Y55.72 E24.36782
G1 X56.48 Y55.86 E24.40859
G1 X56.37 Y55.93 E24.42381
G1 X56.09 Y56.13 E24.46524
G0 F9000 X56.36 Y56.43
;TYPE:WALL-OUTER
G1 F1200 X56.10 Y56.72 E24.51181
G1 X55.91 Y57.06 E24.55827
G1 X55.88 Y57.14 E24.56874
G1 X55.79 Y57.43 E24.60479
G1 X55.78 Y57.51 E24.61492
G1 X55.75 Y57.81 E24.65100
G1 X55.79 Y58.19 E24.69745
G1 X55.88 Y58.48 E24.73327
G1 X55.91 Y58.56 E24.74386
G1 X56.06 Y58.82 E24.77978
G1 X56.10 Y58.90 E24.79027
G1 X56.36 Y59.18 E24.83659
G1 X56.68 Y59.41 E24.88319
G1 X56.95 Y59.53 E24.91880
G1 X57.03 Y59.57 E24.92949
G1 X57.32 Y59.63 E24.96542
G1 X57.41 Y59.65 E24.97597
G1 X57.79 Y59.65 E25.02229
G1 X58.09 Y59.59 E25.05820
G1 X58.17 Y59.57 E25.06865
G1 X58.45 Y59.45 E25.10465
G1 X58.52 Y59.41 E25.11517
G1 X58.84 Y59.18 E25.16167
G1 X59.10 Y58.90 E25.20807
G1 X59.25 Y58.64 E25.24372
G1 X59.29 Y58.56 E25.25442
G1 X59.38 Y58.28 E25.29021
G1 X59.41 Y58.19 E25.30083
G1 X59.45 Y57.81 E25.34716
G1 X59.44 Y57.72 E25.35764
G1 X59.41 Y57.42 E25.39361
G1 X59.38 Y57.34 E25.40408
G1 X59.29 Y57.06 E25.44013
G1 X59.10 Y56.72 E25.48649
G1 X58.84 Y56.43 E25.53305
G1 X58.52 Y56.21 E25.57948
G1 X58.17 Y56.05 E25.62594
G1 X58.09 Y56.03 E25.63622
G1 X57.79 Y55.97 E25.67228
G1 X57.41 Y55.97 E25.71848
G1 X57.32 Y55.99 E25.72888
G1 X57.03 Y56.05 E25.76508
G1 X56.68 Y56.21 E25.81138
G1 X56.36 Y56.43 E25.85780
G0 F9000 X56.19 Y56.19
G0 X54.59 Y54.47
G0 X54.39 Y54.24
G1 F1200 X55.20 Y53.65 E25.97832
G1 X56.12 Y53.25 E26.09849
G1 X57.10 Y53.04 E26.21909
G1 X58.10 Y53.04 E26.33909
G1 X59.08 Y53.25 E26.45969
G1 X60.00 Y53.65 E26.57986
G1 X60.81 Y54.24 E26.70037
G1 X61.48 Y54.99 E26.82111
G1 X61.98 Y55.86 E26.94115
G1 X62.29 Y56.81 E27.06141
G1 X62.38 Y57.63 E27.16023
G1 X62.40 Y57.81 E27.18184
G1 X62.29 Y58.81 E27.30228
G1 X61.98 Y59.76 E27.42253
G1 X61.48 Y60.63 E27.54258
G1 X60.81 Y61.37 E27.66331
G1 X60.00 Y61.97 E27.78383
G1 X59.08 Y62.37 E27.90400
G1 X58.10 Y62.58 E28.02460
G1 X57.10 Y62.58 E28.14460
G1 X56.12 Y62.37 E28.26519
G1 X55.20 Y61.97 E28.38537
G1 X54.39 Y61.37 E28.50588
G1 X53.72 Y60.63 E28.62662
G1 X53.22 Y59.76 E28.74666
G1 X52.91 Y58.81 E28.86692
G1 X52.80 Y57.81 E28.98735
G1 X52.89 Y56.99 E29.08593
G1 X52.91 Y56.81 E29.10778
G1 X53.22 Y55.86 E29.22804
G1 X53.72 Y54.99 E29.34808
G1 X54.39 Y54.24 E29.46882
G0 F9000 X54.85 Y54.57
;TYPE:FILL
G1 F1200 X56.18 Y55.90 E29.69342
G0 F9000 X55.88 Y56.16
G1 F1200 X54.57 Y54.85 E29.91591
G0 F9000 X54.30 Y55.15
G1 F1200 X55.62 Y56.47 E30.14051
G0 F9000 X55.41 Y56.83
G1 F1200 X54.06 Y55.47 E30.37055
G0 F9000 X53.85 Y55.83
G1 F1200 X55.28 Y57.26 E30.61221
G0 F9000 X55.21 Y57.76
G1 F1200 X53.67 Y56.21 E30.87458
G0 F9000 X53.53 Y56.64
G1 F1200 X55.29 Y58.40 E31.17351
G0 F9000 X53.49 Y58.87
G1 F1200 X56.53 Y61.91 E31.68925
G0 F9000 X57.23 Y62.04
G1 F1200 X53.38 Y58.19 E32.34193
G0 F9000 X53.37 Y57.61
G1 F1200 X57.80 Y62.04 E33.09399
G0 F9000 X58.31 Y61.98
G1 F1200 X53.42 Y57.10 E33.92334
G0 F9000 X53.87 Y59.81
G1 F1200 X55.62 Y61.56 E34.22032
G0 F9000 X57.00 Y60.11
G1 F1200 X58.77 Y61.88 E34.52104
G0 F9000 X59.19 Y61.73
G1 F1200 X57.64 Y60.19 E34.78332
G0 F9000 X58.15 Y60.13
G1 F1200 X59.58 Y61.56 E35.02668
G0 F9000 X59.93 Y61.34
G1 F1200 X58.57 Y59.98 E35.25790
G0 F9000 X58.93 Y59.78
G1 F1200 X60.26 Y61.11 E35.48268
G0 F9000 X60.56 Y60.84
G1 F1200 X59.25 Y59.53 E35.70533
G0 F9000 X59.52 Y59.23
G1 F1200 X60.83 Y60.55 E35.92781
G0 F9000 X61.08 Y60.24
G1 F1200 X59.73 Y58.88 E36.15785
G0 F9000 X59.89 Y58.47
G1 F1200 X61.29 Y59.88 E36.39637
G0 F9000 X61.49 Y59.51
G1 F1200 X59.97 Y57.99 E36.65466
G0 F9000 X59.95 Y57.40
G1 F1200 X61.63 Y59.09 E36.94062
G0 F9000 X61.77 Y58.65
G1 F1200 X59.56 Y56.45 E37.31439
G0 F9000 X58.99 Y55.88
G1 F1200 X56.77 Y53.66 E37.69046
G0 F9000 X56.30 Y53.76
G1 F1200 X58.01 Y55.46 E37.97930
G0 F9000 X57.41 Y55.43
G1 F1200 X55.91 Y53.93 E38.23369
G0 F9000 X55.52 Y54.10
G1 F1200 X56.93 Y55.52 E38.47365
G0 F9000 X56.53 Y55.68
G1 F1200 X55.18 Y54.33 E38.70199
G0 F9000 X57.25 Y53.58
G1 F1200 X61.82 Y58.14 E39.47687
G0 F9000 X61.83 Y57.59
G1 F1200 X57.82 Y53.58 E40.15773
G0 F9000 X58.48 Y53.67
G1 F1200 X61.77 Y56.96 E40.71547
G0 F9000 X61.50 Y56.13
G1 F1200 X59.31 Y53.94 E41.08695
;LAYER:1
M106 S5
G0 F9000 X58.96 Y53.63 Z0.40
;TYPE:WALL-INNER
G1 F2220 X59.80 Y54.00 E41.12364
G1 X60.54 Y54.54 E41.16029
G1 X61.16 Y55.23 E41.19723
G1 X61.62 Y56.02 E41.23398
G1 X61.83 Y56.69 E41.26199
G1 X61.90 Y56.89 E41.27061
G1 X61.97 Y57.59 E41.29873
G1 X62.00 Y57.81 E41.30754
G1 X61.97 Y58.02 E41.31610
G1 X61.90 Y58.73 E41.34434
G1 X61.62 Y59.59 E41.38081
G1 X61.16 Y60.40 E41.41783
G1 X60.54 Y61.08 E41.45448
G1 X59.80 Y61.62 E41.49134
G1 X58.96 Y61.99 E41.52794
G1 X58.06 Y62.18 E41.56482
G1 X57.14 Y62.18 E41.60154
G1 X56.24 Y61.99 E41.63842
G1 X55.40 Y61.62 E41.67502
G1 X54.66 Y61.08 E41.71187
G1 X54.05 Y60.40 E41.74852
G1 X53.58 Y59.59 E41.78554
G1 X53.30 Y58.73 E41.82201
G1 X53.28 Y58.51 E41.83086
G1 X53.20 Y57.81 E41.85894
G1 X53.28 Y57.11 E41.88685
G1 X53.30 Y56.89 E41.89574
G1 X53.52 Y56.23 E41.92357
G1 X53.58 Y56.02 E41.93228
G1 X54.04 Y55.23 E41.96913
G1 X54.66 Y54.54 E42.00606
G1 X55.40 Y54.00 E42.04271
G1 X56.24 Y53.63 E42.07944
G1 X56.93 Y53.48 E42.10749
G1 X57.14 Y53.44 E42.11628
G1 X58.06 Y53.44 E42.15296
G1 X58.74 Y53.58 E42.18097
G1 X58.96 Y53.63 E42.18980
G0 F9000 X58.30 Y55.67
G1 F2220 X57.84 Y55.57 E42.20865
G1 X57.37 Y55.57 E42.22745
G1 X56.91 Y55.67 E42.24621
G1 X56.76 Y55.73 E42.25246
G1 X56.48 Y55.86 E42.26510
G1 X56.09 Y56.13 E42.28402
G1 X55.99 Y56.25 E42.29020
G1 X55.78 Y56.49 E42.30286
G1 X55.70 Y56.62 E42.30893
G1 X55.54 Y56.89 E42.32167
G1 X55.49 Y57.04 E42.32789
G1 X55.40 Y57.34 E42.34059
G1 X55.38 Y57.49 E42.34665
G1 X55.35 Y57.81 E42.35929
G1 X55.38 Y58.12 E42.37191
G1 X55.40 Y58.28 E42.37815
G1 X55.49 Y58.58 E42.39071
G1 X55.54 Y58.73 E42.39702
G1 X55.78 Y59.13 E42.41584
G1 X55.98 Y59.36 E42.42822
G1 X56.09 Y59.48 E42.43462
G1 X56.35 Y59.67 E42.44729
G1 X56.47 Y59.76 E42.45351
G1 X56.91 Y59.95 E42.47239
G1 X57.22 Y60.02 E42.48506
G1 X57.36 Y60.05 E42.49112
G1 X57.83 Y60.05 E42.50996
G1 X58.14 Y59.98 E42.52258
G1 X58.30 Y59.95 E42.52893
G1 X58.73 Y59.76 E42.54764
G1 X58.98 Y59.58 E42.56019
G1 X59.11 Y59.48 E42.56653
G1 X59.32 Y59.25 E42.57924
G1 X59.42 Y59.13 E42.58545
G1 X59.66 Y58.73 E42.60421
G1 X59.75 Y58.43 E42.61674
G1 X59.80 Y58.28 E42.62305
G1 X59.84 Y57.97 E42.63556
G1 X59.85 Y57.81 E42.64175
G1 X59.84 Y57.66 E42.64802
G1 X59.80 Y57.34 E42.66065
G1 X59.76 Y57.19 E42.66687
G1 X59.66 Y56.89 E42.67953
G1 X59.58 Y56.76 E42.68580
G1 X59.42 Y56.49 E42.69829
G1 X59.32 Y56.37 E42.70444
G1 X59.11 Y56.13 E42.71724
G1 X58.72 Y55.86 E42.73618
G1 X58.58 Y55.80 E42.74234
G1 X58.30 Y55.67 E42.75489
G0 F9000 X58.17 Y56.05
;TYPE:WALL-OUTER
G1 F2220 X57.79 Y55.97 E42.77035
G1 X57.41 Y55.97 E42.78579
G1 X57.03 Y56.05 E42.80124
G1 X56.93 Y56.09 E42.80574
G1 X56.68 Y56.21 E42.81671
G1 X56.36 Y56.43 E42.83224
G1 X56.29 Y56.52 E42.83675
G1 X56.10 Y56.72 E42.84771
G1 X56.05 Y56.82 E42.85219
G1 X55.91 Y57.06 E42.86316
G1 X55.87 Y57.16 E42.86774
G1 X55.79 Y57.42 E42.87867
G1 X55.78 Y57.54 E42.88317
G1 X55.75 Y57.81 E42.89411
G1 X55.79 Y58.19 E42.90956
G1 X55.91 Y58.56 E42.92506
G1 X56.10 Y58.90 E42.94051
G1 X56.28 Y59.10 E42.95136
G1 X56.36 Y59.18 E42.95598
G1 X56.68 Y59.41 E42.97151
G1 X57.03 Y59.57 E42.98698
G1 X57.30 Y59.63 E42.99789
G1 X57.41 Y59.65 E43.00240
G1 X57.79 Y59.65 E43.01788
G1 X58.06 Y59.59 E43.02878
G1 X58.17 Y59.57 E43.03337
G1 X58.52 Y59.41 E43.04881
G1 X58.84 Y59.19 E43.06428
G1 X59.02 Y58.98 E43.07524
G1 X59.10 Y58.90 E43.07980
G1 X59.29 Y58.56 E43.09525
G1 X59.41 Y58.19 E43.11076
G1 X59.45 Y57.81 E43.12617
G1 X59.44 Y57.70 E43.13071
G1 X59.41 Y57.42 E43.14165
G1 X59.38 Y57.32 E43.14619
G1 X59.29 Y57.06 E43.15716
G1 X59.23 Y56.96 E43.16169
G1 X59.10 Y56.72 E43.17261
G1 X59.02 Y56.64 E43.17711
G1 X58.84 Y56.43 E43.18813
G1 X58.52 Y56.21 E43.20363
G1 X58.42 Y56.16 E43.20812
G1 X58.17 Y56.05 E43.21908
G0 F9000 X58.23 Y55.76
G0 X58.99 Y53.53
G0 X59.08 Y53.25
G1 F2220 X60.00 Y53.65 E43.25914
G1 X60.81 Y54.24 E43.29931
G1 X61.48 Y54.99 E43.33956
G1 X61.98 Y55.86 E43.37957
G1 X62.29 Y56.81 E43.41966
G1 X62.40 Y57.81 E43.45980
G1 X62.29 Y58.81 E43.49995
G1 X61.98 Y59.76 E43.54003
G1 X61.48 Y60.63 E43.58005
G1 X60.81 Y61.37 E43.62029
G1 X60.00 Y61.97 E43.66046
G1 X59.08 Y62.37 E43.70052
G1 X58.10 Y62.58 E43.74072
G1 X57.10 Y62.58 E43.78072
G1 X56.12 Y62.37 E43.82092
G1 X55.20 Y61.97 E43.86098
G1 X54.39 Y61.37 E43.90115
G1 X53.72 Y60.63 E43.94139
G1 X53.22 Y59.76 E43.98141
G1 X52.91 Y58.81 E44.02149
G1 X52.80 Y57.81 E44.06164
